svgs/thin/memory.svg

<svg xmlns="http://www.w3.org/2000/svg" viewBox="0 0 576 512"><!-- Font Awesome Pro 6.0.0-alpha2 by @fontawesome - https://fontawesome.com License - https://fontawesome.com/license (Commercial License) --><path d="M576 146.938V112C576 85.492 554.51 64 528 64H48C21.49 64 0 85.492 0 112V146.938C18.6 153.547 32 171.133 32 192S18.6 230.453 0 237.062V416C0 433.672 14.328 448 32 448H544C561.674 448 576 433.672 576 416V237.062C557.4 230.453 544 212.867 544 192S557.4 153.547 576 146.938ZM560 416C560 424.824 552.822 432 544 432H488V400C488 395.578 484.406 392 480 392S472 395.578 472 400V432H360V400C360 395.578 356.406 392 352 392S344 395.578 344 400V432H232V400C232 395.578 228.406 392 224 392S216 395.578 216 400V432H104V400C104 395.578 100.406 392 96 392S88 395.578 88 400V432H32C23.178 432 16 424.824 16 416V336H560V416ZM560 136.777C540.484 148.062 528 169.035 528 192S540.484 235.938 560 247.223V320H16V247.223C35.518 235.938 48 214.965 48 192S35.518 148.062 16 136.777V112C16 94.355 30.355 80 48 80H528C545.645 80 560 94.355 560 112V136.777ZM432 128H400C391.164 128 384 135.164 384 144V240C384 248.836 391.164 256 400 256H432C440.838 256 448 248.836 448 240V144C448 135.164 440.838 128 432 128ZM432 240H400V144H432V240ZM304 128H272C263.164 128 256 135.164 256 144V240C256 248.836 263.164 256 272 256H304C312.838 256 320 248.836 320 240V144C320 135.164 312.838 128 304 128ZM304 240H272V144H304V240ZM176 128H144C135.164 128 128 135.164 128 144V240C128 248.836 135.164 256 144 256H176C184.838 256 192 248.836 192 240V144C192 135.164 184.838 128 176 128ZM176 240H144V144H176V240Z"/></svg>

<svg xmlns="http://www.w3.org/2000/svg" viewBox="0 0 576 512"><!--! Font Awesome Pro 6.3.0 by @fontawesome - https://fontawesome.com License - https://fontawesome.com/license (Commercial License) Copyright 2023 Fonticons, Inc. --><path d="M576 146.9V112C576 85.49 554.5 64 528 64h-480C21.49 64 0 85.49 0 112v34.94C18.6 153.5 32 171.1 32 192S18.6 230.5 0 237.1V416c0 17.67 14.33 32 32 32h512c17.67 0 32-14.33 32-32V237.1C557.4 230.5 544 212.9 544 192S557.4 153.5 576 146.9zM560 416c0 8.824-7.178 16-16 16h-56v-32c0-4.422-3.594-8-8-8s-8 3.578-8 8v32h-112v-32c0-4.422-3.594-8-8-8s-8 3.578-8 8v32h-112v-32c0-4.422-3.594-8-8-8s-8 3.578-8 8v32h-112v-32c0-4.422-3.594-8-8-8s-8 3.578-8 8v32H32c-8.822 0-16-7.176-16-16v-80h544V416zM560 136.8C540.5 148.1 528 169 528 192s12.48 43.94 32 55.22V320h-544V247.2C35.52 235.9 48 214.1 48 192s-12.48-43.94-32-55.22V112c0-17.64 14.36-32 32-32h480c17.64 0 32 14.36 32 32V136.8zM432 128h-32C391.2 128 384 135.2 384 144v96C384 248.8 391.2 256 400 256h32C440.8 256 448 248.8 448 240v-96C448 135.2 440.8 128 432 128zM432 240h-32v-96h32V240zM304 128h-32C263.2 128 256 135.2 256 144v96C256 248.8 263.2 256 272 256h32C312.8 256 320 248.8 320 240v-96C320 135.2 312.8 128 304 128zM304 240h-32v-96h32V240zM176 128h-32C135.2 128 128 135.2 128 144v96C128 248.8 135.2 256 144 256h32C184.8 256 192 248.8 192 240v-96C192 135.2 184.8 128 176 128zM176 240h-32v-96h32V240z"/></svg>
